X:2099
T:Drömde mik en dröm i nat
T:(tolkning Åke Persson, 2000)
R:Visa
O:Lund, Skåne
S:Runtenom 2000-1 sid 7  [[http://www.skanefolk.se/skspf/hidden/docs/Runtenom2000-1.pdf]]
Z:Åke Persson, 2011-09-26
M:3/4
L:1/8
K:C
B2 Bd cd | B2 A2 G2 | B2 d2 dd | dB G4 |
w:Drö-öm-de mik en|dröm i nat| um sil-ki ok|är-lik päl
B2 d2 c2 | d2 (dcB) d | A2 (BAG) B | d2 A4 |
(:musicend:)
Denna tolkning har gjorts utifrån uppbyggnaden av långdansmelodier i tretakt som traderats från medeltiden till vår tid. Detta indelar melodin i 4+4 takter. Ligaturerna i andra delen är här tolkade som tre toner (varför annars skriva ligatur och inte bara två toner?) och att orden "drömde" har tre toner och "silki" två toner motsäger trokeisk rytm (varför annars skriva ut flera toner?) såsom i DR:s paussignal och i Hammerich "tretakt"-version (se nedan).
----

(:music:)
